icon-svg/piv-unit.svg

<svg xmlns="http://www.w3.org/2000/svg" viewBox="0 0 24 24"><path fill="#44739e" d="m16.154 15.324-.02-.014-.025.007-.066.029-.012-.072a13 13 0 0 1-.113-1.801 11.6 11.6 0 0 0-.142-1.956c-.142-.758-.5-2.158-1.064-4.163a5.2 5.2 0 0 1-.026-2.747 2.6 2.6 0 0 1 .241-.645.4.4 0 0 1 .046-.055c.035-.04.1-.1.083-.143-.006-.021-.034-.044-.075-.064a1.15 1.15 0 0 0-.771-.01c-.463.174-.735.964-.787 2.284a16 16 0 0 0 .093 2.275v.011c0 .553.433 1.181 1.357 1.975l.011.008.005.013a8.6 8.6 0 0 1 .391 1.364 15 15 0 0 1 .3 3.701v.077l-.078-.028-.054-.02h-.01a8 8 0 0 0-1.21.324.1.1 0 0 0 .01.073c.014.033.034.051.047.053.531.08 1.015.148 1.443.209.556.078 1.036.146 1.406.209.1.017.167-.115.18-.177l.006-.019-.152-.089c-.884-.519-.884-.519-1.014-.609m.732-2.456-.016-.013v-.021a10 10 0 0 1-.145-.961 5.3 5.3 0 0 0-.555-2.059 2.44 2.44 0 0 0-.891-.974l-.042-.03c.268.99.459 1.755.579 2.311a9 9 0 0 1 .554 1.707l.023.1-.1-.04-.029-.012h-.006a6 6 0 0 0-.234.054c0 .169.008.337.011.5l.476.076c.482.076.9.142 1.219.2.077.014.133-.1.146-.17v-.02l-.128-.083c-.721-.462-.764-.49-.862-.565m-1.627.443.159.026-.021-.223a2 2 0 0 0-.182.076.12.12 0 0 0 .012.08.1.1 0 0 0 .032.041m-4.885-6.112a3.5 3.5 0 0 0-.768-.086 1.62 1.62 0 0 0-1.1.292 21.1 21.1 0 0 0-3.6 9.774c-.056.729.51 1.279 1.682 1.633l.057.018c.234.074 2.591.45 3.653-.561l.049-.046a.94.94 0 0 0 .351-.509c.133-.829.354-1.811.569-2.761l.17-.763a16 16 0 0 1 .474-1.736c.15-.464.336-1.04.643-2.221a1.9 1.9 0 0 0 .018-.865 2.91 2.91 0 0 0-2.198-2.169m3.028 1.068c-.016-.137-.453-3.847.607-4.594a.5.5 0 0 0-.141-.075 7 7 0 0 0-.849-.13c-.047-.053-.044-.112-.052-.212a1.86 1.86 0 0 0-.386-1.043.9.9 0 0 0-.884-.16 1.1 1.1 0 0 0-.615.688c-.064.209-.055.432-.2.491-.03.012-.049.01-.184 0-.239-.018-.358-.027-.4-.025a.6.6 0 0 0-.347.151h-.062a.5.5 0 0 1-.132.121c-.017.013-.035.025-.043.033A5.7 5.7 0 0 0 8.66 6.793l.02.255-.015.111a3 3 0 0 1 1.736-.07 3.14 3.14 0 0 1 1.474.817 2.74 2.74 0 0 1 .8 1.442 2.2 2.2 0 0 1 .022.706c.233-.29.364-.653.715-1.235l.123.015a1.4 1.4 0 0 1-.134-.566Zm-.935-3.807c-.087.321.028.625-.058.946-.092.342-.385.7-.477 1.044a.18.18 0 0 1-.2.132l-2.355-.339a.18.18 0 0 1-.127-.083.2.2 0 0 1-.019-.151c.111-.342.048-.716.158-1.058.091-.28.356-.527.446-.807a.18.18 0 0 1 .19-.124l2.293.224a.17.17 0 0 1 .125.074.18.18 0 0 1 .025.142Zm7.555.385-4.9-.943a1 1 0 0 1-.067.082.3.3 0 0 0-.034.041 2.5 2.5 0 0 0-.227.612 5.1 5.1 0 0 0 .026 2.688q.2.71.363 1.312.075.056.154.11a3.3 3.3 0 0 1 .465.373l3.6.453a1.51 1.51 0 0 0 1.691-1.3l.227-1.738a1.51 1.51 0 0 0-1.298-1.69M5.235 14.499q.072-.3.154-.6a3 3 0 0 1-.246-.156l-.02-.014-.063-.02.03-.059c.268-.534.672-1.329 1.084-2.138a17.5 17.5 0 0 1 2.238-4.175.5.5 0 0 1 .17-.137 9 9 0 0 1-.035-.4 5.2 5.2 0 0 1 .386-2.076 4.4 4.4 0 0 1 .7-1.3.4.4 0 0 1 .057-.044c.043-.031.115-.082.112-.121a.14.14 0 0 0-.059-.08 1.16 1.16 0 0 0-.748-.18c-.49.067-.93.777-1.272 2.053a16 16 0 0 0-.414 2.247 1.8 1.8 0 0 0 0 .484v.022l-.008.014-.257.442c-.426.731-.865 1.486-1.152 2.064a18 18 0 0 0-.747 1.819 21 21 0 0 1-.639 1.6l-.022.047-.05-.018h-.008a8 8 0 0 0-1.211.324.12.12 0 0 0 .011.073c.014.032.034.051.047.053.53.079 1.014.147 1.442.208Zm1.866-6.556.094-.162a2 2 0 0 1 0-.5c0-.035.307-3 1.212-4.045l-3.924-.3A1.51 1.51 0 0 0 2.84 4.299l-.166 1.747A1.51 1.51 0 0 0 4.033 7.69Zm3.792 9.272q-.05.267-.09.517a1.03 1.03 0 0 1-.385.573l-.049.046a3.43 3.43 0 0 1-2.179.718c-.088 0-.175.005-.259.005a5.7 5.7 0 0 1-1.33-.136l-.056-.017a4 4 0 0 1-1.053-.468 1.38 1.38 0 0 1-.709-1.283v-.035a2.03 2.03 0 0 0-1.2 1.809C3.593 20.632 5.432 22 7.701 22s4.107-1.368 4.107-3.056a2 2 0 0 0-.915-1.729m-5.044-4.811c-.242.476-.463.913-.634 1.253.057.039.091.062.2.131q.195-.685.434-1.384m10.071-.705a10 10 0 0 1 .1 1.123c.106-.026.187-.044.218-.051a9 9 0 0 0-.318-1.072"/></svg>

<?xml version="1.0" encoding="UTF-8"?>
<svg width="24px" fill="#44739e" height="24px" viewBox="0 0 24 24" version="1.1" xmlns="http://www.w3.org/2000/svg" xmlns:xlink="http://www.w3.org/1999/xlink">
            <path d="m 16.152,15.324 -0.02,-0.014 a 0.083,0.083 0 0 0 -0.025,0.007 l -0.066,0.029 -0.012,-0.072 a 12.671,12.671 0 0 1 -0.113,-1.8 11.632,11.632 0 0 0 -0.142,-1.956 C 15.632,10.76 15.274,9.36 14.71,7.355 A 5.217,5.217 0 0 1 14.684,4.608 2.629,2.629 0 0 1 14.925,3.963 0.405,0.405 0 0 1 14.971,3.908 c 0.035,-0.04 0.1,-0.1 0.083,-0.143 C 15.048,3.744 15.02,3.721 14.979,3.701 a 1.151,1.151 0 0 0 -0.771,-0.01 c -0.463,0.174 -0.735,0.964 -0.787,2.284 a 15.988,15.988 0 0 0 0.093,2.275 v 0.011 c 0,0.553 0.433,1.181 1.357,1.975 l 0.011,0.008 0.005,0.013 a 8.6,8.6 0 0 1 0.391,1.364 15.045,15.045 0 0 1 0.3,3.7 v 0.077 L 15.5,15.37 15.446,15.35 h -0.01 a 7.891,7.891 0 0 0 -1.21,0.324 0.106,0.106 0 0 0 0.01,0.073 c 0.014,0.033 0.034,0.051 0.047,0.053 0.531,0.08 1.015,0.148 1.443,0.209 0.556,0.078 1.036,0.146 1.406,0.209 0.1,0.017 0.167,-0.115 0.18,-0.177 l 0.006,-0.019 -0.152,-0.089 c -0.884,-0.519 -0.884,-0.519 -1.014,-0.609 z m 0.732,-2.455 -0.016,-0.013 V 12.835 C 16.797,12.5 16.759,12.182 16.723,11.874 A 5.3,5.3 0 0 0 16.168,9.815 2.437,2.437 0 0 0 15.277,8.841 l -0.042,-0.03 c 0.268,0.99 0.459,1.755 0.579,2.311 a 8.848,8.848 0 0 1 0.554,1.707 l 0.023,0.1 -0.1,-0.04 -0.029,-0.012 h -0.006 c -0.035,0.007 -0.122,0.026 -0.234,0.054 0,0.169 0.008,0.337 0.011,0.5 l 0.476,0.076 c 0.482,0.076 0.9,0.142 1.219,0.2 0.077,0.014 0.133,-0.1 0.146,-0.17 v -0.02 l -0.128,-0.083 c -0.721,-0.462 -0.764,-0.49 -0.862,-0.565 z m -1.627,0.443 0.159,0.026 C 15.41,13.263 15.403,13.189 15.395,13.115 a 1.825,1.825 0 0 0 -0.182,0.076 0.123,0.123 0 0 0 0.012,0.08 0.077,0.077 0 0 0 0.032,0.041 z M 10.373,7.2 a 3.475,3.475 0 0 0 -0.768,-0.086 1.619,1.619 0 0 0 -1.1,0.292 21.123,21.123 0 0 0 -3.6,9.773 c -0.056,0.729 0.51,1.279 1.682,1.633 l 0.057,0.018 c 0.234,0.074 2.591,0.45 3.653,-0.561 l 0.049,-0.046 a 0.936,0.936 0 0 0 0.351,-0.509 c 0.133,-0.829 0.354,-1.811 0.568,-2.761 0.06,-0.266 0.116,-0.517 0.17,-0.762 a 15.56,15.56 0 0 1 0.474,-1.736 c 0.15,-0.464 0.336,-1.04 0.643,-2.221 A 1.925,1.925 0 0 0 12.57,9.369 2.906,2.906 0 0 0 10.373,7.2 Z M 13.4,8.268 v 0 C 13.384,8.131 12.947,4.421 14.007,3.674 A 0.513,0.513 0 0 0 13.866,3.599 7.093,7.093 0 0 0 13.017,3.469 C 12.97,3.416 12.973,3.357 12.965,3.257 A 1.861,1.861 0 0 0 12.579,2.214 0.906,0.906 0 0 0 11.695,2.054 1.1,1.1 0 0 0 11.081,2.742 c -0.064,0.209 -0.055,0.432 -0.2,0.491 -0.03,0.012 -0.049,0.01 -0.184,0 -0.239,-0.018 -0.358,-0.027 -0.4,-0.025 A 0.6,0.6 0 0 0 9.95,3.359 H 9.888 A 0.484,0.484 0 0 1 9.756,3.48 C 9.739,3.493 9.721,3.505 9.713,3.513 A 5.686,5.686 0 0 0 8.659,6.794 c 0.006,0.09 0.013,0.175 0.02,0.255 L 8.664,7.16 a 3.008,3.008 0 0 1 1.736,-0.07 3.143,3.143 0 0 1 1.473,0.817 2.742,2.742 0 0 1 0.8,1.442 2.15,2.15 0 0 1 0.022,0.706 C 12.928,9.765 13.059,9.402 13.41,8.82 l 0.123,0.015 A 1.422,1.422 0 0 1 13.399,8.269 Z M 12.465,4.461 c -0.087,0.321 0.028,0.625 -0.058,0.946 -0.092,0.342 -0.385,0.7 -0.477,1.044 a 0.181,0.181 0 0 1 -0.2,0.132 L 9.376,6.244 A 0.18,0.18 0 0 1 9.249,6.161 0.186,0.186 0 0 1 9.23,6.01 C 9.341,5.668 9.278,5.294 9.388,4.952 9.479,4.672 9.744,4.425 9.834,4.145 a 0.183,0.183 0 0 1 0.19,-0.124 l 2.292,0.224 a 0.172,0.172 0 0 1 0.125,0.074 0.182,0.182 0 0 1 0.025,0.142 z m 7.555,0.385 -4.9,-0.943 a 0.738,0.738 0 0 1 -0.067,0.082 0.314,0.314 0 0 0 -0.034,0.041 2.539,2.539 0 0 0 -0.227,0.612 5.079,5.079 0 0 0 0.026,2.688 q 0.2,0.71 0.363,1.312 c 0.051,0.037 0.1,0.074 0.154,0.11 A 3.332,3.332 0 0 1 15.8,9.121 l 3.6,0.453 a 1.508,1.508 0 0 0 1.691,-1.3 L 21.318,6.536 A 1.508,1.508 0 0 0 20.02,4.846 Z M 5.234,14.5 Q 5.306,14.2 5.388,13.9 C 5.243,13.814 5.211,13.792 5.142,13.744 L 5.122,13.73 5.059,13.71 5.089,13.651 C 5.357,13.117 5.761,12.322 6.173,11.513 A 17.537,17.537 0 0 1 8.411,7.338 0.517,0.517 0 0 1 8.581,7.201 C 8.568,7.08 8.555,6.946 8.546,6.801 a 5.239,5.239 0 0 1 0.386,-2.076 4.375,4.375 0 0 1 0.7,-1.3 0.439,0.439 0 0 1 0.057,-0.044 C 9.732,3.35 9.804,3.299 9.801,3.26 A 0.141,0.141 0 0 0 9.742,3.18 1.155,1.155 0 0 0 8.994,3 C 8.504,3.067 8.064,3.777 7.722,5.053 A 15.85,15.85 0 0 0 7.308,7.3 a 1.77,1.77 0 0 0 0,0.484 V 7.806 L 7.3,7.82 7.043,8.262 C 6.617,8.993 6.178,9.748 5.891,10.326 a 18.2,18.2 0 0 0 -0.747,1.819 c -0.193,0.525 -0.393,1.068 -0.639,1.6 L 4.483,13.792 4.433,13.774 H 4.425 a 7.668,7.668 0 0 0 -1.211,0.324 0.116,0.116 0 0 0 0.011,0.073 c 0.014,0.032 0.034,0.051 0.047,0.053 0.53,0.079 1.014,0.147 1.442,0.208 z M 7.1,7.944 7.194,7.782 a 1.946,1.946 0 0 1 0,-0.5 c 0,-0.035 0.307,-3 1.212,-4.045 L 4.482,2.937 A 1.509,1.509 0 0 0 2.839,4.3 L 2.673,6.047 a 1.509,1.509 0 0 0 1.359,1.644 z m 3.792,9.271 c -0.033,0.177 -0.064,0.351 -0.09,0.517 a 1.029,1.029 0 0 1 -0.385,0.573 l -0.049,0.046 a 3.426,3.426 0 0 1 -2.179,0.718 c -0.088,0 -0.175,0.005 -0.259,0.005 A 5.682,5.682 0 0 1 6.6,18.938 L 6.544,18.921 A 3.934,3.934 0 0 1 5.491,18.453 1.379,1.379 0 0 1 4.782,17.17 v -0.035 a 2.03,2.03 0 0 0 -1.2,1.809 C 3.592,20.632 5.431,22 7.7,22 c 2.269,0 4.106,-1.368 4.106,-3.056 a 2.006,2.006 0 0 0 -0.914,-1.729 z m -5.044,-4.81 c -0.242,0.476 -0.463,0.913 -0.634,1.253 0.057,0.039 0.091,0.062 0.2,0.131 0.131,-0.456 0.274,-0.919 0.434,-1.384 z M 15.918,11.7 a 9.564,9.564 0 0 1 0.1,1.123 c 0.106,-0.026 0.187,-0.044 0.218,-0.051 A 9.212,9.212 0 0 0 15.918,11.7 Z"/>

</svg>
